svgs/charts/bar-line-chart.svg

<svg width="24" height="24" viewBox="0 0 24 24" fill="none" xmlns="http://www.w3.org/2000/svg">
<path d="M20 20V13M12 20V10M4 20L4 16M13.4067 5.0275L18.5751 6.96567M10.7988 5.40092L5.20023 9.59983M21.0607 6.43934C21.6464 7.02513 21.6464 7.97487 21.0607 8.56066C20.4749 9.14645 19.5251 9.14645 18.9393 8.56066C18.3536 7.97487 18.3536 7.02513 18.9393 6.43934C19.5251 5.85355 20.4749 5.85355 21.0607 6.43934ZM5.06066 9.43934C5.64645 10.0251 5.64645 10.9749 5.06066 11.5607C4.47487 12.1464 3.52513 12.1464 2.93934 11.5607C2.35355 10.9749 2.35355 10.0251 2.93934 9.43934C3.52513 8.85355 4.47487 8.85355 5.06066 9.43934ZM13.0607 3.43934C13.6464 4.02513 13.6464 4.97487 13.0607 5.56066C12.4749 6.14645 11.5251 6.14645 10.9393 5.56066C10.3536 4.97487 10.3536 4.02513 10.9393 3.43934C11.5251 2.85355 12.4749 2.85355 13.0607 3.43934Z" stroke="#1C1D20" stroke-width="1.5" stroke-linecap="round" stroke-linejoin="round"/>
</svg>

<svg fill="none" xmlns="http://www.w3.org/2000/svg" viewBox="0 0 24 24"><path d="M20 20v-7m-8 7V10M4 20v-4m9.407-10.973 5.168 1.939M10.8 5.4 5.2 9.6m15.86-3.16a1.5 1.5 0 1 1-2.121 2.12 1.5 1.5 0 0 1 2.122-2.12Zm-16 3a1.5 1.5 0 1 1-2.12 2.12 1.5 1.5 0 0 1 2.12-2.12Zm8-6a1.5 1.5 0 1 1-2.121 2.12 1.5 1.5 0 0 1 2.122-2.12Z" stroke="#1C1D20" stroke-width="1.5" stroke-linecap="round" stroke-linejoin="round"/></svg>
